apps/scalable/easylife.svg

<svg xmlns="http://www.w3.org/2000/svg" style="isolation:isolate" width="256" height="256"><defs><filter id="a" width="270.648" height="254.338" x="-7.32" y="2.95" filterUnits="userSpaceOnUse"><feGaussianBlur xmlns="http://www.w3.org/2000/svg" in="SourceGraphic" stdDeviation="4.294"/><feOffset xmlns="http://www.w3.org/2000/svg" dy="4" result="pf_100_offsetBlur"/><feFlood xmlns="http://www.w3.org/2000/svg" flood-opacity=".4"/><feComposite xmlns="http://www.w3.org/2000/svg" in2="pf_100_offsetBlur" operator="in" result="pf_100_dropShadow"/><feBlend xmlns="http://www.w3.org/2000/svg" in="SourceGraphic" in2="pf_100_dropShadow"/></filter></defs><g filter="url(#a)"><linearGradient id="b" x1=".567" x2=".567" y1="1.071" y2="-.071" gradientTransform="matrix(244.648 0 0 228.338 5.676 11.947)" gradientUnits="userSpaceOnUse"><stop offset="0%" stop-color="#a0a0a0"/><stop offset="100%" stop-color="#dfdfdf"/></linearGradient><path fill="url(#b)" d="M165.685 11.947c74.055 0 84.639 10.557 84.639 84.544v59.251c0 73.986-10.584 84.543-84.639 84.543h-75.37c-74.055 0-84.639-10.557-84.639-84.543V96.491c0-73.987 10.584-84.544 84.639-84.544h75.37z"/></g><path fill="#292F7B" d="M5.68 124v31.746c0 9.248.166 17.506.6 24.875.217 3.685.501 7.147.865 10.4.364 3.254.808 6.298 1.346 9.147.537 2.849 1.168 5.502 1.904 7.971.736 2.469 1.578 4.755 2.539 6.871a39.512 39.512 0 0 0 3.252 5.848 33.305 33.305 0 0 0 4.043 4.904 33.33 33.33 0 0 0 4.91 4.037 39.54 39.54 0 0 0 5.856 3.248c2.118.96 4.407 1.8 6.879 2.535 2.471.735 5.127 1.366 7.978 1.903 2.852.536 5.899.98 9.156 1.343 3.258.364 6.724.647 10.413.864 7.376.433 15.641.597 24.898.597h9.651c15.029-10.635 24.365-26.207 28.42-42.176l-21.961-8.176c-3.875 13.721-11.028 22.644-21.018 28.891-17.889 11.187-36.005 4.03-50.092-15.918l81.778-51.141c-2.528-6.978-5.495-12.996-7.43-16.922-21.669-43.964-54.239-49.613-81.885-32.324-9.321 5.829-16.68 13.114-22.102 21.477zm49.414-3.069c9.598.287 19.917 6.189 28.479 22.018l-59.94 37.484c-8.124-22.649-4.247-42.533 15.5-54.883 4.705-2.942 10.203-4.791 15.961-4.619z"/><path d="M130.618 11.95H99.313l84.729 171.901 66.288-41.453v-33.893l-55.129 34.475-64.583-131.03z"/><path fill="#FFF" d="M98.731 11.95h-8.412c-9.257 0-17.522.165-24.898.598-3.689.216-7.155.499-10.413.863-3.257.364-6.304.807-9.156 1.344-2.851.536-5.506 1.167-7.978 1.902-2.472.735-4.761 1.576-6.879 2.535a39.63 39.63 0 0 0-5.856 3.248 33.33 33.33 0 0 0-4.91 4.037 33.261 33.261 0 0 0-4.043 4.905 39.5 39.5 0 0 0-3.252 5.847c-.961 2.116-1.803 4.402-2.539 6.872-.736 2.469-1.367 5.122-1.904 7.97-.538 2.849-.982 5.893-1.346 9.147a199.173 199.173 0 0 0-.865 10.4c-.434 7.37-.6 15.627-.6 24.876v59.252c0 9.248.166 17.506.6 24.875.217 3.685.501 7.147.865 10.4.364 3.254.808 6.298 1.346 9.147.537 2.849 1.168 5.502 1.904 7.971.736 2.469 1.578 4.755 2.539 6.871a39.461 39.461 0 0 0 3.252 5.848 33.305 33.305 0 0 0 4.043 4.904 33.33 33.33 0 0 0 4.91 4.037 39.54 39.54 0 0 0 5.856 3.248c2.118.96 4.407 1.8 6.879 2.535 2.472.735 5.127 1.366 7.978 1.903 2.852.536 5.899.98 9.156 1.343 3.258.364 6.724.647 10.413.864 7.376.433 15.641.597 24.898.597h75.372c9.257 0 17.522-.164 24.898-.597 3.689-.217 7.155-.5 10.413-.864 3.257-.363 6.304-.807 9.156-1.343.437-.083.796-.205 1.224-.291L98.731 11.95z" opacity=".25"/><g opacity=".4"><linearGradient id="c" x1=".517" x2=".517" y2="1"><stop offset="0%" stop-color="#fff"/><stop offset="12.5%" stop-opacity=".098" stop-color="#fff"/><stop offset="92.5%" stop-opacity=".098"/><stop offset="100%" stop-opacity=".498"/></linearGradient><path fill="none" stroke="url(#c)" stroke-linecap="round" stroke-linejoin="round" stroke-width="4.077" d="M165.685 11.947c74.055 0 84.639 10.557 84.639 84.544v59.251c0 73.986-10.584 84.543-84.639 84.543h-75.37c-74.055 0-84.639-10.557-84.639-84.543V96.491c0-73.987 10.584-84.544 84.639-84.544h75.37z" vector-effect="non-scaling-stroke"/></g></svg>

<svg xmlns="http://www.w3.org/2000/svg" style="isolation:isolate" width="256" height="256" viewBox="0 0 256 256">
 <defs>
  <filter id="r9LcTERnztGwqQLT1mflo0hQanRumXKp" width="270.648" height="254.338" x="-7.32" y="2.95" filterUnits="userSpaceOnUse">
   <feGaussianBlur xmlns="http://www.w3.org/2000/svg" in="SourceGraphic" stdDeviation="4.294"/>
   <feOffset xmlns="http://www.w3.org/2000/svg" dx="0" dy="4" result="pf_100_offsetBlur"/>
   <feFlood xmlns="http://www.w3.org/2000/svg" flood-opacity=".4"/>
   <feComposite xmlns="http://www.w3.org/2000/svg" in2="pf_100_offsetBlur" operator="in" result="pf_100_dropShadow"/>
   <feBlend xmlns="http://www.w3.org/2000/svg" in="SourceGraphic" in2="pf_100_dropShadow" mode="normal"/>
  </filter>
 </defs>
 <g filter="url(#r9LcTERnztGwqQLT1mflo0hQanRumXKp)">
  <linearGradient id="_lgradient_111" x1=".567" x2=".567" y1="1.071" y2="-.071" gradientTransform="matrix(244.648,0,0,228.338,5.676,11.947)" gradientUnits="userSpaceOnUse">
   <stop offset="0%" style="stop-color:rgb(160,160,160)"/>
   <stop offset="100%" style="stop-color:rgb(223,223,223)"/>
  </linearGradient>
  <path fill="url(#_lgradient_111)" d="M 165.685 11.947 C 239.74 11.947 250.324 22.504 250.324 96.491 L 250.324 155.742 C 250.324 229.728 239.74 240.285 165.685 240.285 L 90.315 240.285 C 16.26 240.285 5.676 229.728 5.676 155.742 L 5.676 96.491 C 5.676 22.504 16.26 11.947 90.315 11.947 L 165.685 11.947 Z"/>
 </g>
 <g>
  <path fill="#292F7B" d="M 5.68 124 L 5.68 155.746 C 5.68 164.994 5.846 173.252 6.28 180.621 C 6.497 184.306 6.781 187.768 7.145 191.021 C 7.509 194.275 7.953 197.319 8.491 200.168 C 9.028 203.017 9.659 205.67 10.395 208.139 C 11.131 210.608 11.973 212.894 12.934 215.01 C 13.895 217.125 14.974 219.07 16.186 220.858 C 17.397 222.645 18.741 224.276 20.229 225.762 C 21.717 227.248 23.349 228.589 25.139 229.799 C 26.929 231.009 28.877 232.088 30.995 233.047 C 33.113 234.007 35.402 234.847 37.874 235.582 C 40.345 236.317 43.001 236.948 45.852 237.485 C 48.704 238.021 51.751 238.465 55.008 238.828 C 58.266 239.192 61.732 239.475 65.421 239.692 C 72.797 240.125 81.062 240.289 90.319 240.289 L 99.97 240.289 C 114.999 229.654 124.335 214.082 128.39 198.113 L 106.429 189.937 C 102.554 203.658 95.401 212.581 85.411 218.828 C 67.522 230.015 49.406 222.858 35.319 202.91 L 117.097 151.769 C 114.569 144.791 111.602 138.773 109.667 134.847 C 87.998 90.883 55.428 85.234 27.782 102.523 C 18.461 108.352 11.102 115.637 5.68 124 Z M 55.094 120.931 C 64.692 121.218 75.011 127.12 83.573 142.949 L 23.633 180.433 C 15.509 157.784 19.386 137.9 39.133 125.55 C 43.838 122.608 49.336 120.759 55.094 120.931 Z"/>
  <path d="M 130.618 11.95 L 99.313 11.95 L 184.042 183.851 L 250.33 142.398 L 250.33 108.505 L 195.201 142.98 L 130.618 11.95 Z"/>
  <g opacity=".25">
   <path fill="#FFFFFF" d="M 98.731 11.95 L 90.319 11.95 C 81.062 11.95 72.797 12.115 65.421 12.548 C 61.732 12.764 58.266 13.047 55.008 13.411 C 51.751 13.775 48.704 14.218 45.852 14.755 C 43.001 15.291 40.346 15.922 37.874 16.657 C 35.402 17.392 33.113 18.233 30.995 19.192 C 28.877 20.152 26.929 21.23 25.139 22.44 C 23.349 23.65 21.717 24.991 20.229 26.477 C 18.741 27.963 17.397 29.594 16.186 31.382 C 14.974 33.17 13.895 35.114 12.934 37.229 C 11.973 39.345 11.131 41.631 10.395 44.101 C 9.659 46.57 9.028 49.223 8.491 52.071 C 7.953 54.92 7.509 57.964 7.145 61.218 C 6.781 64.472 6.497 67.934 6.28 71.618 C 5.846 78.988 5.68 87.245 5.68 96.494 L 5.68 155.746 C 5.68 164.994 5.846 173.252 6.28 180.621 C 6.497 184.306 6.781 187.768 7.145 191.021 C 7.509 194.275 7.953 197.319 8.491 200.168 C 9.028 203.017 9.659 205.67 10.395 208.139 C 11.131 210.608 11.973 212.894 12.934 215.01 C 13.895 217.126 14.974 219.07 16.186 220.858 C 17.397 222.645 18.741 224.276 20.229 225.762 C 21.717 227.248 23.349 228.589 25.139 229.799 C 26.929 231.009 28.877 232.088 30.995 233.047 C 33.113 234.007 35.402 234.847 37.874 235.582 C 40.346 236.317 43.001 236.948 45.852 237.485 C 48.704 238.021 51.751 238.465 55.008 238.828 C 58.266 239.192 61.732 239.475 65.421 239.692 C 72.797 240.125 81.062 240.289 90.319 240.289 L 165.691 240.289 C 174.948 240.289 183.213 240.125 190.589 239.692 C 194.278 239.475 197.744 239.192 201.002 238.828 C 204.259 238.465 207.306 238.021 210.158 237.485 C 210.595 237.402 210.954 237.28 211.382 237.194 L 98.731 11.95 Z"/>
  </g>
 </g>
 <g opacity=".4">
  <linearGradient id="_lgradient_112" x1=".517" x2=".517" y1="0" y2="1">
   <stop offset="0%" style="stop-color:rgb(255,255,255)"/>
   <stop offset="12.5%" stop-opacity=".098" style="stop-color:rgb(255,255,255)"/>
   <stop offset="92.5%" stop-opacity=".098" style="stop-color:rgb(0,0,0)"/>
   <stop offset="100%" stop-opacity=".498" style="stop-color:rgb(0,0,0)"/>
  </linearGradient>
  <path fill="none" stroke="url(#_lgradient_112)" stroke-linecap="round" stroke-linejoin="round" stroke-width="4.077" d="M 165.685 11.947 C 239.74 11.947 250.324 22.504 250.324 96.491 L 250.324 155.742 C 250.324 229.728 239.74 240.285 165.685 240.285 L 90.315 240.285 C 16.26 240.285 5.676 229.728 5.676 155.742 L 5.676 96.491 C 5.676 22.504 16.26 11.947 90.315 11.947 L 165.685 11.947 Z" vector-effect="non-scaling-stroke"/>
 </g>
</svg>
